X:25
T:Ask The Fiddler Again
A:Wellington
C:Liz Merton
L:1/8
M:6/8
O:New Zealand
P:2
R:Jig
%%Copyright:Liz Merton
%%TUNEURL: http://www.leeds.ac.uk/music/Info/RRTuneBk/gettune/00000c86.html
%%ID:00000c86
K:Bb
| B2e dcB | g2f d3 | e2g ((3fga) f | b2f dcB | \
G2e dcB | F2d cBF | CEG c2B | ((3ABc) A FGA |
B2e dcB | g2f d3 | e2g ((3fga) f | b2f dcB | \
G2e dcB | F2d cBF | GAB c2A | BFD B,3|:
abd eab | de=e f3 | g^fg dec | ((3ABc) A FGA |
BDB D2B | EBE c2B | ((3ABc) A FGA | BFD B,3:|
